icons/mortar-board-16.svg

<svg xmlns="http://www.w3.org/2000/svg" width="16" height="16" viewBox="0 0 16 16"><path d="M7.693 1.066a.747.747 0 01.614 0l7.25 3.25a.75.75 0 010 1.368L13 6.831v2.794c0 1.024-.81 1.749-1.66 2.173-.893.447-2.075.702-3.34.702-.278 0-.55-.012-.816-.036a.75.75 0 01.133-1.494c.22.02.45.03.683.03 1.082 0 2.025-.221 2.67-.543.69-.345.83-.682.83-.832V7.503L8.307 8.934a.747.747 0 01-.614 0L4 7.28v1.663c.296.105.575.275.812.512.438.438.688 1.059.688 1.796v3a.75.75 0 01-.75.75h-3a.75.75 0 01-.75-.75v-3c0-.737.25-1.358.688-1.796.237-.237.516-.407.812-.512V6.606L.443 5.684a.75.75 0 010-1.368zM2.583 5L8 7.428 13.416 5 8 2.572zM2.5 11.25v2.25H4v-2.25c0-.388-.125-.611-.25-.735a.697.697 0 00-.5-.203.707.707 0 00-.5.203c-.125.124-.25.347-.25.735z"/></svg>

<svg xmlns="http://www.w3.org/2000/svg" width="16" height="16" viewBox="0 0 16 16">
  <defs/>
  <path d="M7.693,1.066 C7.888,0.978 8.112,0.978 8.307,1.066 L15.557,4.316 C15.826,4.437 15.999,4.705 15.999,5 C15.999,5.295 15.826,5.563 15.557,5.684 L13,6.831 L13,9.625 C13,10.649 12.19,11.374 11.34,11.798 C10.447,12.245 9.265,12.5 8,12.5 C7.722,12.5 7.45,12.488 7.184,12.464 C6.775,12.423 6.475,12.061 6.512,11.651 C6.548,11.242 6.907,10.938 7.317,10.97 C7.537,10.99 7.767,11 8,11 C9.082,11 10.025,10.779 10.67,10.457 C11.36,10.112 11.5,9.775 11.5,9.625 L11.5,7.503 L8.307,8.934 C8.112,9.022 7.888,9.022 7.693,8.934 L4,7.28 L4,8.943 C4.296,9.048 4.575,9.218 4.812,9.455 C5.25,9.893 5.5,10.514 5.5,11.251 L5.5,14.251 C5.5,14.665 5.164,15.001 4.75,15.001 L1.75,15.001 C1.336,15.001 1,14.665 1,14.251 L1,11.251 C1,10.514 1.25,9.893 1.688,9.455 C1.925,9.218 2.204,9.048 2.5,8.943 L2.5,6.606 L0.443,5.684 C0.174,5.563 0.001,5.295 0.001,5 C0.001,4.705 0.174,4.437 0.443,4.316 Z M2.583,5 L8,7.428 L13.416,5 L8,2.572 Z M2.5,11.25 L2.5,13.5 L4,13.5 L4,11.25 C4,10.862 3.875,10.639 3.75,10.515 C3.62,10.383 3.44,10.312 3.25,10.312 C3.063,10.311 2.883,10.384 2.75,10.515 C2.625,10.639 2.5,10.862 2.5,11.25 Z"/>
</svg>
